svg/m/MT.svg

<svg width="20" height="15" viewBox="0 0 20 15" fill="none" xmlns="http://www.w3.org/2000/svg">
<rect width="20" height="15" fill="white"/>
<mask id="path-1-inside-1_270_60845" fill="white">
<path fill-rule="evenodd" clip-rule="evenodd" d="M6.25 3.8H3.75V5.67034C3.47464 5.73566 3.2698 5.98315 3.2698 6.27848C3.2698 6.28568 3.26992 6.29286 3.27016 6.3H1.25V8.8H3.33171C3.41244 8.96711 3.56537 9.09281 3.75 9.1366V11.3H6.25V9.14465C6.45225 9.11036 6.62144 8.97891 6.70788 8.8H8.75V6.3H6.76942C6.76966 6.29286 6.76979 6.28568 6.76979 6.27848C6.76979 5.96916 6.54508 5.71232 6.25 5.6623V3.8Z"/>
</mask>
<path fill-rule="evenodd" clip-rule="evenodd" d="M6.25 3.8H3.75V5.67034C3.47464 5.73566 3.2698 5.98315 3.2698 6.27848C3.2698 6.28568 3.26992 6.29286 3.27016 6.3H1.25V8.8H3.33171C3.41244 8.96711 3.56537 9.09281 3.75 9.1366V11.3H6.25V9.14465C6.45225 9.11036 6.62144 8.97891 6.70788 8.8H8.75V6.3H6.76942C6.76966 6.29286 6.76979 6.28568 6.76979 6.27848C6.76979 5.96916 6.54508 5.71232 6.25 5.6623V3.8Z" fill="#A0A0A0"/>
<path d="M3.75 3.8V3.175H3.125V3.8H3.75ZM6.25 3.8H6.875V3.175H6.25V3.8ZM3.75 5.67034L3.89426 6.27846L4.375 6.16442V5.67034H3.75ZM3.27016 6.3V6.925H3.91667L3.89481 6.27887L3.27016 6.3ZM1.25 6.3V5.675H0.625V6.3H1.25ZM1.25 8.8H0.625V9.425H1.25V8.8ZM3.33171 8.8L3.89448 8.52812L3.72388 8.175H3.33171V8.8ZM3.75 9.1366H4.375V8.64252L3.89426 8.52848L3.75 9.1366ZM3.75 11.3H3.125V11.925H3.75V11.3ZM6.25 11.3V11.925H6.875V11.3H6.25ZM6.25 9.14465L6.14554 8.52844L5.625 8.61668V9.14465H6.25ZM6.70788 8.8V8.175H6.31571L6.14511 8.52812L6.70788 8.8ZM8.75 8.8V9.425H9.375V8.8H8.75ZM8.75 6.3H9.375V5.675H8.75V6.3ZM6.76942 6.3L6.14478 6.27887L6.12292 6.925H6.76942V6.3ZM6.25 5.6623H5.625V6.19026L6.14554 6.27851L6.25 5.6623ZM3.75 4.425H6.25V3.175H3.75V4.425ZM4.375 5.67034V3.8H3.125V5.67034H4.375ZM3.8948 6.27848L3.89426 6.27846L3.60574 5.06221C3.05501 5.19286 2.6448 5.687 2.6448 6.27848H3.8948ZM3.89481 6.27887L3.8948 6.27848H2.6448C2.6448 6.29273 2.64504 6.30695 2.64552 6.32114L3.89481 6.27887ZM1.25 6.925H3.27016V5.675H1.25V6.925ZM1.875 8.8V6.3H0.625V8.8H1.875ZM3.33171 8.175H1.25V9.425H3.33171V8.175ZM3.89426 8.52848L3.89448 8.52812L2.76894 9.07188C2.93005 9.40535 3.23493 9.65677 3.60574 9.74473L3.89426 8.52848ZM4.375 11.3V9.1366H3.125V11.3H4.375ZM6.25 10.675H3.75V11.925H6.25V10.675ZM5.625 9.14465V11.3H6.875V9.14465H5.625ZM6.35446 9.76085C6.76086 9.69196 7.09825 9.42871 7.27064 9.07188L6.14511 8.52812L6.14554 8.52844L6.35446 9.76085ZM8.75 8.175H6.70788V9.425H8.75V8.175ZM8.125 6.3V8.8H9.375V6.3H8.125ZM6.76942 6.925H8.75V5.675H6.76942V6.925ZM6.14479 6.27848L6.14478 6.27887L7.39406 6.32114C7.39454 6.30697 7.39479 6.29274 7.39479 6.27848H6.14479ZM6.14554 6.27851L6.14479 6.27848H7.39479C7.39479 5.65921 6.94509 5.14621 6.35446 5.04609L6.14554 6.27851ZM5.625 3.8V5.6623H6.875V3.8H5.625Z" fill="#FECA00" mask="url(#path-1-inside-1_270_60845)"/>
<path fill-rule="evenodd" clip-rule="evenodd" d="M10 0H20V15H10V0Z" fill="#E31D1C"/>
<mask id="mask0_270_60845" style="mask-type:luminance" maskUnits="userSpaceOnUse" x="10" y="0" width="10" height="15">
<path fill-rule="evenodd" clip-rule="evenodd" d="M10 0H20V15H10V0Z" fill="white"/>
</mask>
<g mask="url(#mask0_270_60845)">
</g>
</svg>

<svg width="20" height="15" fill="none" xmlns="http://www.w3.org/2000/svg">
  <path fill="#F7FCFF" d="M0 0h20v15H0z"/>
  <mask id="a" maskUnits="userSpaceOnUse" x="0" y="0" width="20" height="15">
    <path fill="#fff" d="M0 0h20v15H0z"/>
  </mask>
  <g mask="url(#a)">
    <mask id="b" fill="#fff">
      <path fill-rule="evenodd" clip-rule="evenodd" d="M6.25 3.8h-2.5v1.87a.625.625 0 00-.48.63H1.25v2.5h2.082c.08.167.233.293.418.337V11.3h2.5V9.145a.626.626 0 00.458-.345H8.75V6.3H6.77a.625.625 0 00-.52-.638V3.8z"/>
    </mask>
    <path fill-rule="evenodd" clip-rule="evenodd" d="M6.25 3.8h-2.5v1.87a.625.625 0 00-.48.63H1.25v2.5h2.082c.08.167.233.293.418.337V11.3h2.5V9.145a.626.626 0 00.458-.345H8.75V6.3H6.77a.625.625 0 00-.52-.638V3.8z" fill="#A0A0A0"/>
    <path d="M3.75 3.8v-.625h-.625V3.8h.625zm2.5 0h.625v-.625H6.25V3.8zm-2.5 1.87l.144.608.481-.114V5.67H3.75zm-.48.63v.625h.647l-.022-.646-.625.021zm-2.02 0v-.625H.625V6.3h.625zm0 2.5H.625v.625h.625V8.8zm2.082 0l.562-.272-.17-.353h-.392V8.8zm.418.337h.625v-.494l-.48-.115-.145.609zm0 2.163h-.625v.625h.625V11.3zm2.5 0v.625h.625V11.3H6.25zm0-2.155l-.104-.617-.521.089v.528h.625zm.458-.345v-.625h-.392l-.17.353.562.272zm2.042 0v.625h.625V8.8H8.75zm0-2.5h.625v-.625H8.75V6.3zm-1.98 0l-.625-.021-.022.646h.646V6.3zm-.52-.638h-.625v.528l.52.089.105-.617zm-2.5-1.237h2.5v-1.25h-2.5v1.25zm.625 1.245V3.8h-1.25v1.87h1.25zm-.48.608l-.29-1.216c-.55.13-.96.625-.96 1.216h1.25zm0 0h-1.25v.043l1.25-.042zm-2.645.647h2.02v-1.25H1.25v1.25zM1.875 8.8V6.3H.625v2.5h1.25zm1.457-.625H1.25v1.25h2.082v-1.25zm.562.353l-1.125.544c.161.333.466.585.837.673l.288-1.217zm.481 2.772V9.137h-1.25V11.3h1.25zm1.875-.625h-2.5v1.25h2.5v-1.25zm-.625-1.53V11.3h1.25V9.145h-1.25zm.73.616a1.25 1.25 0 00.916-.69l-1.126-.543.21 1.233zM8.75 8.175H6.708v1.25H8.75v-1.25zM8.125 6.3v2.5h1.25V6.3h-1.25zm-1.356.625H8.75v-1.25H6.77v1.25zm-.624-.647l1.25.043v-.043h-1.25zm0 0h1.25a1.25 1.25 0 00-1.04-1.232l-.21 1.233zM5.626 3.8v1.862h1.25V3.8h-1.25z" fill="#FECA00" mask="url(#b)"/>
    <path fill-rule="evenodd" clip-rule="evenodd" d="M10 0h10v15H10V0z" fill="#E31D1C"/>
  </g>
</svg>
